img/form-tel.svg

<svg width="24" height="24" viewBox="0 0 24 24" fill="none" xmlns="http://www.w3.org/2000/svg">
<path fill-rule="evenodd" clip-rule="evenodd" d="M16.3077 1H7.69231C6.20615 1 5 2.12 5 3.5V20.5C5 21.88 6.20615 23 7.69231 23H16.3077C17.7938 23 19 21.88 19 20.5V3.5C19 2.12 17.7938 1 16.3077 1ZM12 22C11.17 22 10.5 21.33 10.5 20.5C10.5 19.67 11.17 19 12 19C12.83 19 13.5 19.67 13.5 20.5C13.5 21.33 12.83 22 12 22ZM17 18H7V4H17V18Z" fill="black" fill-opacity="0.2"/>
</svg>

<svg width="24" height="24" fill="none" xmlns="http://www.w3.org/2000/svg"><path fill-rule="evenodd" clip-rule="evenodd" d="M16.308 1H7.692C6.206 1 5 2.12 5 3.5v17C5 21.88 6.206 23 7.692 23h8.616C17.794 23 19 21.88 19 20.5v-17C19 2.12 17.794 1 16.308 1zM12 22c-.83 0-1.5-.67-1.5-1.5S11.17 19 12 19s1.5.67 1.5 1.5S12.83 22 12 22zm5-4H7V4h10v14z" fill="#000" fill-opacity=".2"/></svg>
